X: 30401
T: Old Sport, The
R: reel
M: 4/4
K: Amajor
cB|:A2EA FAEA|cedc BdcB|A2EA FAEA|cdBc AdcB|
A2EA FAEA|cedcB3g|agfe fedc|1 BAGBA2cB:|2 BAGBA2cd||
|:efeg aecA|GABcd2ed|ceae fbba|gafge2eg|
agaef2fd|e2ecd2cd|efed cedB|1 A2a2A2cd:|2 A2a2A2||

